X: 1
T: Nora Crionna
M: 6/8
L: 1/8
R: jig
K: Gmaj
G2A BAG|A2B cBA|dBd gdB|AdB BAF|
G2A BAG|dcB ABd|gaf gdB|A2B cBA:|
dBd gdB|ded dBc|dBd gdB|A2B cBA|
1dBd gdB|ded def|gfa gdB|A2B cBA:|
2 dBd ece|fdf g2a|bge dBG|A2B cBA||!
